ufans-frontend-package/public/assets/images/video-call/camera-off.svg

<svg width="123" height="96" viewBox="0 0 123 96" fill="none" xmlns="http://www.w3.org/2000/svg">
<path fill-rule="evenodd" clip-rule="evenodd" d="M44.08 0.0510208H85.12L92.38 12.981L76.72 24.231C72.6 21.821 67.81 20.441 62.7 20.441C47.36 20.441 34.92 32.881 34.92 48.221C34.92 50.151 35.12 52.031 35.49 53.841L0 79.331V18.561C0 17.541 0.84 16.701 1.86 16.701C12.19 16.701 22.52 16.701 32.85 16.701C35.27 11.931 37.69 7.15102 40.11 2.38102C41.58 -0.528979 40.77 0.0510208 44.08 0.0510208ZM107.92 16.701H113.75C114.77 16.701 115.61 17.561 115.61 18.561V83.551C115.61 84.551 114.75 85.411 113.75 85.411H12.26L40.6 65.051C45.68 71.711 53.69 76.001 62.7 76.001C78.04 76.001 90.48 63.561 90.48 48.221C90.48 42.451 88.72 37.101 85.71 32.651L107.78 16.801C107.83 16.771 107.87 16.741 107.92 16.701ZM76.8 39.051C78.52 41.691 79.52 44.841 79.52 48.221C79.52 57.511 71.99 65.041 62.7 65.041C57.35 65.041 52.59 62.541 49.51 58.661L76.8 39.051Z" fill="#6661E7"/>
<path d="M10.0405 95.6423L2.98047 85.8323L115.82 6.15234L122.88 15.9623L10.0405 95.6423Z" fill="#6661E7"/>
</svg>

<svg xmlns="http://www.w3.org/2000/svg" width="122.88" height="95.638" viewBox="0 0 122.88 95.638">
  <g id="camera-off" transform="translate(0 -0.004)">
    <path id="Path_1" data-name="Path 1" d="M44.08.051H85.12l7.26,12.93L76.72,24.231a27.79,27.79,0,0,0-41.8,23.99,28.042,28.042,0,0,0,.57,5.62L0,79.331V18.561A1.869,1.869,0,0,1,1.86,16.7H32.85q3.63-7.155,7.26-14.32C41.58-.529,40.77.051,44.08.051ZM107.92,16.7h5.83a1.883,1.883,0,0,1,1.86,1.86v64.99a1.9,1.9,0,0,1-1.86,1.86H12.26L40.6,65.051a27.781,27.781,0,0,0,45.11-32.4L107.78,16.8A1.213,1.213,0,0,0,107.92,16.7ZM76.8,39.051a16.821,16.821,0,0,1-27.29,19.61Z" fill="#e44499" fill-rule="evenodd"/>
    <path id="Path_2" data-name="Path 2" d="M10.04,95.642l-7.06-9.81L115.82,6.152l7.06,9.81Z" fill="#e44499"/>
  </g>
</svg>
